X:122
T:God the Father Be Our Stay
%%stretchlast false
M:none
L:1/4
K:Bb clef=C1
"^I"[B,,B,DF] [B,,B,DF] "^vi"[G,,B,DG] "^V"[F,,A,FA] | "^IV"[E,,G,B,B] "^vi"[G,,D,G,B] "^V"[F,,F,A,A] "^ii"[C,E,CG] | "^vi"[G,,D,DB] "^I"[B,,D,DF] [B,,F,B,D] "^IV"[E,,G,B,E] | "^I²"[F,,F,B,D] "^V"[F,,F,A,C] "^I"[B,,D,B,]2 | [B,,B,DF] [B,,B,DF] "^vi"[G,,B,DG] "^V"[F,,A,FA] | "^IV"[E,,G,B,B] "^vi"[G,,D,G,B] "^V"[F,,F,A,A] "^ii"[C,E,CG] | "^vi"[G,,D,DB] "^I"[B,,D,DF] [B,,F,B,D] "^IV"[E,,G,B,E] | "^I²"[F,,F,B,D] "^V"[F,,F,A,C] "^I"[B,,D,B,]2 | [B,,D,F,B,] "^V¹"[A,,C,F,C] "^I"[B,,F,D] "^vi"[G,,B,,G,D] | [G,,D,G,B,] "^V"[F,,F,A,C] "^I"[B,,F,B,D]3/2 [B,,B,DB]/ | "^V"[F,CFA] "^I¹"[D,DFB] "^ii"[C,G,Ec] [C,G,Ec]/ "^vi"[G,,G,B,B]/ | "^V¹"[A,,F,CA] "^V/V"[C,=E,CG] "^V"[F,,F,A,F]3/2 "^I"[B,,D,F,B,]/ | [B,,D,B,F] "^vi"[G,,G,DB] "^iii"[D,F,DA] [D,A,F] | "^ii"[C,G,CG]3/4 [C,G,CF]/4 [C,G,CE] "^V/ii"[G,,G,=B,D]3/2 "^ii"[C,E,G,C]/ | "^I"[B,,F,B,D] "^vi"[G,,G,B,D] "^V"[F,,C,A,F]3/2 "^ii"[C,E,CE]/ | "^vi"[G,,G,B,D] "^vii"[A,,C,A,C] "^I"[B,,D,F,B,]2 | "^vi"[G,,G,] [C,D,G,B,] [B,,E,B,C] "^I"[B,,F,D] | "^vi"[G,,D,G,D] [C,D,G,B,] [B,,E,B,C] "^I"[B,,F,B,D]/ [B,,F,DF]/ | "^iii¹"[F,DF]/ "^I²"[F,DFB]/ "^vii"[G,CDA] "^ii7"[C,B,EB]3/4 [C,B,FB]/4 "^ii"[C,G,Gc]/ "^ii¹"[E,G,Gc]/ | "^v"[F,G,Fc]/ [F,G,FB]/ "^V²"[C,A,FA]/ "^vii¹"[C,A,=EA]/ "^V"[F,,A,CG] [F,,A,CF]/ "^i7"[B,,A,B,F]/ | "^Imaj7"[B,,A,DF]/ "^I"[B,,D,B,D]/ "^vi7"[G,,F,B,F] "^vi7²"[D,F,G,B] "^I7¹"[D,A,B,A] | "^i"[C,B,CF] "^vii7¹"[C,G,A,G]3/4 "^V²"[C,G,A,F]/4 "^ii7³"[B,,B,CE] "^I"[B,,F,B,D]/ "^iii¹"[F,,F,A,D]/ | "^I"[B,,F,B,D]/ [B,,F,B,C]/ "^vi7"[G,,F,B,D] [D,,G,A,D] "^iii"[D,,F,F]/ "^v"[E,,F,F]/ | "^i"[F,,F,B,F]/ [F,,F,B,E]/ "^I²"[F,,F,B,D] "^V"[B,,F,A,C] "^i"[B,,F,B,] | [B,,F,B,] "^V¹"[A,,F,] "^I"[B,,D,F,B,] "^v"[G,,F,G,C] | "^vi"[G,,D,G,D] "^Imaj7²"[F,,B,,A,D] "^I"[B,,D,B,] "^i"[B,,F,B,C]/ [C,F,G,C]/ | "^iii"[D,F,D] [D,F,D]/ "^v7²"[C,F,CE]/ "^i7"[B,,F,A,F] "^V"[E,,G,A,F]/ "^vii"[E,,G,A,E]/ | "^I"[B,,F,B,D] [F,,F,B,E] [B,,F,B,D] "^V"[B,,F,A,C] | "^I"[B,,D,F,B,]4 |]
